brandFactory_export/3.Masa/Sol _3Masa.svg

<?xml version="1.0" encoding="UTF-8"?>
<svg width="24px" height="24px" viewBox="0 0 24 24" version="1.1" xmlns="http://www.w3.org/2000/svg" xmlns:xlink="http://www.w3.org/1999/xlink">
    <title>3.Masa/Sol _3Masa</title>
    <g id="Symbols" stroke="none" stroke-width="1" fill="none" fill-rule="evenodd">
        <g id="3.Masa/Sol-_3Masa" fill="#5CB615" fill-rule="nonzero">
            <path d="M22.8773109,11.0218487 L19.9159664,11.0218487 C19.8554622,11.0218487 19.8084034,11.0420168 19.7579832,11.0521008 C19.5966387,9.04201681 18.9680672,7.59327731 18.1142857,6.55462185 C18.1445378,6.53445378 18.1647059,6.52436975 18.1848739,6.50420168 L20.312605,4.38655462 C20.6016807,4.10756303 20.6117647,3.64705882 20.3327731,3.35798319 L20.312605,3.33781513 C20.0302521,3.04537815 19.5663866,3.03865546 19.2739496,3.3210084 L19.2571429,3.33781513 L17.1294118,5.45546218 C17.1092437,5.47563025 17.0991597,5.50588235 17.0789916,5.53277311 C15.4789916,4.28571429 13.5697479,3.97983193 12.5546218,3.9092437 L12.5546218,0.742857143 C12.5512605,0.332773109 12.2184874,0.00336134454 11.8084034,0 C11.3983193,0 11.0655462,0.329411765 11.0621849,0.739495798 L11.0621849,3.90252101 C10.0302521,3.96302521 8.14789916,4.2487395 6.56806723,5.47563025 C6.54789916,5.45546218 6.53781513,5.41848739 6.50756303,5.39831933 L4.44033613,3.33781513 C4.15798319,3.04537815 3.6907563,3.03865546 3.40168067,3.3210084 L3.38487395,3.33781513 C3.09915966,3.6302521 3.09915966,4.09747899 3.38487395,4.38655462 L5.45210084,6.44369748 C5.48235294,6.46386555 5.51260504,6.47394958 5.54285714,6.50420168 C4.7092437,7.54621849 4.0907563,9.01176471 3.95294118,11.0487395 C3.90252101,11.0386555 3.86554622,11.0218487 3.81512605,11.0218487 L0.746218487,11.0218487 C0.336134454,11.0218487 0.00336134454,11.3546218 0,11.7647059 C0,12.1680672 0.339495798,12.5042017 0.746218487,12.5042017 L3.81848739,12.5042017 C3.85882353,12.5042017 3.89579832,12.4840336 3.93613445,12.4840336 C4.02689076,14.5344538 4.56470588,16.0369748 5.34789916,17.1294118 C5.32773109,17.1495798 5.29747899,17.1563025 5.27058824,17.1865546 L3.22016807,19.2268908 C2.93109244,19.5058824 2.9210084,19.9697479 3.20336134,20.2588235 C3.21008403,20.2655462 3.21344538,20.2722689 3.22016807,20.2756303 C3.36134454,20.4235294 3.54957983,20.4907563 3.74789916,20.4907563 C3.88571429,20.4907563 4.02689076,20.4436975 4.14453782,20.3630252 C4.25882353,20.3294118 4.35966387,20.2689076 4.44369748,20.1848739 L6.32268908,18.3226891 C6.34285714,18.292437 6.35294118,18.2621849 6.38319328,18.2352941 C7.98319328,19.610084 9.97310924,19.9394958 11.0655462,20.0067227 L11.0655462,22.8773109 C11.0655462,23.2941176 11.394958,23.6201681 11.8117647,23.6201681 C12.2218487,23.6201681 12.5546218,23.2907563 12.5579832,22.8773109 L12.5579832,20.0268908 C12.5579832,20.0168067 12.5478992,20.0168067 12.5478992,20.0067227 C13.6,19.9462185 15.6705882,19.6302521 17.3310924,18.2252101 C17.3512605,18.2554622 17.3613445,18.2957983 17.3915966,18.3226891 L19.2605042,20.1848739 C19.4084034,20.3327731 19.5966387,20.4 19.7882353,20.4 C19.9865546,20.4 20.1747899,20.3327731 20.3159664,20.1848739 C20.605042,19.9058824 20.6151261,19.4453782 20.3361345,19.1563025 L20.3159664,19.1361345 L18.4436975,17.2773109 C18.4033613,17.2369748 18.3563025,17.2168067 18.302521,17.1865546 C19.1193277,16.087395 19.6941176,14.5613445 19.7747899,12.4739496 C19.8252101,12.4840336 19.8655462,12.5042017 19.912605,12.5042017 L22.8739496,12.5042017 C23.2840336,12.5008403 23.6168067,12.1714286 23.6201681,11.7613445 C23.6201681,11.3546218 23.287395,11.0218487 22.8773109,11.0218487" id="Path"></path>
        </g>
    </g>
</svg>

<svg width="24" height="24" viewBox="0 0 24 24" xmlns="http://www.w3.org/2000/svg"><path d="M22.877 11.022h-2.961c-.06 0-.108.02-.158.03-.161-2.01-.79-3.459-1.644-4.497.03-.02.05-.03.07-.05l2.129-2.118c.289-.28.299-.74.02-1.029l-.02-.02a.733.733 0 00-1.04-.017l-.016.017-2.128 2.117c-.02.02-.03.05-.05.078-1.6-1.247-3.51-1.553-4.524-1.624V.743A.745.745 0 0011.063.74v3.163c-1.033.06-2.915.346-4.495 1.573-.02-.02-.03-.058-.06-.078L4.44 3.338a.734.734 0 00-1.038-.017l-.017.017a.749.749 0 000 1.049l2.067 2.057c.03.02.06.03.09.06-.833 1.042-1.451 2.508-1.59 4.545-.05-.01-.086-.027-.137-.027H.746a.748.748 0 00-.746.743c0 .403.34.74.746.74h3.072c.04 0 .078-.021.118-.021.09 2.05.629 3.553 1.412 4.645-.02.02-.05.027-.077.058l-2.05 2.04a.728.728 0 00-.018 1.032c.007.007.01.013.017.017.141.148.33.215.528.215a.713.713 0 00.397-.128.698.698 0 00.299-.178l1.879-1.862c.02-.03.03-.06.06-.088 1.6 1.375 3.59 1.704 4.683 1.772v2.87c0 .417.329.743.746.743.41 0 .743-.33.746-.743v-2.85c0-.01-.01-.01-.01-.02 1.052-.06 3.123-.377 4.783-1.782.02.03.03.07.06.098l1.87 1.862a.734.734 0 00.527.215.713.713 0 00.528-.215c.289-.28.3-.74.02-1.029l-.02-.02-1.872-1.859c-.04-.04-.088-.06-.141-.09.816-1.1 1.391-2.626 1.472-4.713.05.01.09.03.138.03h2.96a.75.75 0 00.747-.743.742.742 0 00-.743-.74" fill="#5CB615" fill-rule="nonzero"/></svg>
